X: 21927
T: Kite's Corner
R: polka
M: 2/4
K: Dmajor
|:D2 DE|FD B,A,|D2 DE|FA GE|D2 DE|
[1 FD CA,|FA GE|D2 DE:|2 FD B,A,|DF EF|D2 D2||
|:E>G EF|GA Bc|d>e dA|BA FA|
E>G EF|GA B>c|df ec|1 d2 d2:|2 dc BA||

